dist/images/ico-plate.svg

<svg xmlns="http://www.w3.org/2000/svg" xmlns:xlink="http://www.w3.org/1999/xlink" preserveAspectRatio="none" width="110" height="80" viewBox="0 0 110 80"><defs><path fill="#c39c4d" d="M12.35 3.75q-.75-.05-1.45.2-1.05.25-1.85.9-.7.35-1.1.85-1.3 1.25-2.15 3.4-8.45 18.35 6.85 21.55Q27.1 27.45 19 9.1q-1.4-2.9-3.35-4.25-1-.65-1.85-.9-.8-.25-1.45-.2z" id="a"/><path fill="#c39c4d" d="M13.9 32.2q-.3-3.05-.65-4.4-.2-.65-.35-.85-.15-.2-.25-.2t-.25.2q-.2.2-.35.85-.4 1.35-.7 4.4-4.15 41.25 1.3 41.25 5.4 0 1.25-41.25m86.05-4.4q-.2-.65-.35-.85-.15-.2-.25-.2t-.25.2q-.2.2-.35.85-.4 1.35-.7 4.4-4.15 41.25 1.3 41.25 5.4 0 1.25-41.25-.3-3.05-.65-4.4z" id="b"/><path fill="#c39c4d" d="M77.3 19.85q-9-9-21.7-9t-21.7 9q-9 9-9 21.7t9 21.7q9 9 21.7 9t21.7-9q9-9 9-21.7t-9-21.7m-21.45-4.4q10.85 0 18.45 7.65Q82 30.75 82 41.6t-7.7 18.5q-7.6 7.65-18.45 7.65T37.3 60.1q-7.6-7.65-7.6-18.5t7.6-18.5q7.7-7.65 18.55-7.65m51.75-10.8h-2.9v17.9h-2.2V4.65h-2.2V22.6h-2.35V4.65h-2.2v17.9h-2.4V4.65h-3.2v18.8q0 3.6 2.55 6.15 2.55 2.55 6.15 2.55h.05q3.6 0 6.15-2.55 2.55-2.55 2.55-6.15V4.65z" id="c"/><path fill="#c39c4d" d="M76.4 41.75q0-8.45-6-14.45-5.95-5.95-14.4-5.95T41.55 27.3q-5.95 6-5.95 14.45t5.95 14.4q6 6 14.45 6t14.4-6q6-5.95 6-14.4M69.7 28q5.7 5.7 5.7 13.75t-5.7 13.7q-5.65 5.7-13.7 5.7-8.05 0-13.75-5.7-5.65-5.65-5.65-13.7 0-8.05 5.65-13.75 5.7-5.65 13.75-5.65T69.7 28z" id="d"/></defs><use xlink:href="#a"/><use xlink:href="#b"/><use xlink:href="#c"/><use xlink:href="#d"/></svg>

<svg xmlns="http://www.w3.org/2000/svg" version="1.1" xmlns:xlink="http://www.w3.org/1999/xlink" preserveAspectRatio="none" x="0px" y="0px" width="110px" height="80px" viewBox="0 0 110 80">
<defs>
<g id="Layer4_0_FILL">
<path fill="#c39c4d" stroke="none" d="
M 12.35 3.75
Q 11.6 3.7 10.9 3.95 9.85 4.2 9.05 4.85 8.35 5.2 7.95 5.7 6.65 6.95 5.8 9.1 -2.65 27.45 12.65 30.65 27.1 27.45 19 9.1 17.6 6.2 15.65 4.85 14.65 4.2 13.8 3.95 13 3.7 12.35 3.75 Z"/>
</g>

<g id="Layer3_0_FILL">
<path fill="#c39c4d" stroke="none" d="
M 13.9 32.2
Q 13.6 29.15 13.25 27.8 13.05 27.15 12.9 26.95 12.75 26.75 12.65 26.75 12.55 26.75 12.4 26.95 12.2 27.15 12.05 27.8 11.65 29.15 11.35 32.2 7.2 73.45 12.65 73.45 18.05 73.45 13.9 32.2
M 99.95 27.8
Q 99.75 27.15 99.6 26.95 99.45 26.75 99.35 26.75 99.25 26.75 99.1 26.95 98.9 27.15 98.75 27.8 98.35 29.15 98.05 32.2 93.9 73.45 99.35 73.45 104.75 73.45 100.6 32.2 100.3 29.15 99.95 27.8 Z"/>
</g>

<g id="Layer2_0_FILL">
<path fill="#c39c4d" stroke="none" d="
M 77.3 19.85
Q 68.3 10.85 55.6 10.85 42.9 10.85 33.9 19.85 24.9 28.85 24.9 41.55 24.9 54.25 33.9 63.25 42.9 72.25 55.6 72.25 68.3 72.25 77.3 63.25 86.3 54.25 86.3 41.55 86.3 28.85 77.3 19.85
M 55.85 15.45
Q 66.7 15.45 74.3 23.1 82 30.75 82 41.6 82 52.45 74.3 60.1 66.7 67.75 55.85 67.75 45 67.75 37.3 60.1 29.7 52.45 29.7 41.6 29.7 30.75 37.3 23.1 45 15.45 55.85 15.45
M 107.6 4.65
L 104.7 4.65 104.7 22.55 102.5 22.55 102.5 4.65 100.3 4.65 100.3 22.6 97.95 22.6 97.95 4.65 95.75 4.65 95.75 22.55 93.35 22.55 93.35 4.65 90.15 4.65 90.15 23.45
Q 90.15 27.05 92.7 29.6 95.25 32.15 98.85 32.15
L 98.9 32.15
Q 102.5 32.15 105.05 29.6 107.6 27.05 107.6 23.45
L 107.6 4.65 Z"/>
</g>

<g id="Layer0_0_FILL">
<path fill="#c39c4d" stroke="none" d="
M 76.4 41.75
Q 76.4 33.3 70.4 27.3 64.45 21.35 56 21.35 47.55 21.35 41.55 27.3 35.6 33.3 35.6 41.75 35.6 50.2 41.55 56.15 47.55 62.15 56 62.15 64.45 62.15 70.4 56.15 76.4 50.2 76.4 41.75
M 69.7 28
Q 75.4 33.7 75.4 41.75 75.4 49.8 69.7 55.45 64.05 61.15 56 61.15 47.95 61.15 42.25 55.45 36.6 49.8 36.6 41.75 36.6 33.7 42.25 28 47.95 22.35 56 22.35 64.05 22.35 69.7 28 Z"/>
</g>
</defs>

<g transform="matrix( 1, 0, 0, 1, 0,0) ">
<use xlink:href="#Layer4_0_FILL"/>
</g>

<g transform="matrix( 1, 0, 0, 1, 0,0) ">
<use xlink:href="#Layer3_0_FILL"/>
</g>

<g transform="matrix( 1, 0, 0, 1, 0,0) ">
<use xlink:href="#Layer2_0_FILL"/>
</g>

<g transform="matrix( 1, 0, 0, 1, 0,0) ">
<use xlink:href="#Layer0_0_FILL"/>
</g>
</svg>
